modules/feathericon/icons/login.svg

<?xml version="1.0" encoding="UTF-8"?>
<svg width="12px" height="12px" viewBox="0 0 12 12" version="1.1" xmlns="http://www.w3.org/2000/svg" xmlns:xlink="http://www.w3.org/1999/xlink">
    <!-- Generator: sketchtool 48.1 (47250) - http://www.bohemiancoding.com/sketch -->
    <title>login</title>
    <desc>Created with sketchtool.</desc>
    <defs></defs>
    <g id="web-app" stroke="none" stroke-width="1" fill="none" fill-rule="evenodd">
        <g id="login" fill="#000000" fill-rule="nonzero">
            <path d="M2.22044605e-16,1.00247329 C2.22044605e-16,0.448822582 0.455760956,0 1.00247329,0 L10.9975267,0 C11.5511774,0 12,0.455760956 12,1.00247329 L12,10.9975267 C12,11.5511774 11.544239,12 10.9975267,12 L1.00247329,12 C0.448822582,12 2.22044605e-16,11.544239 2.22044605e-16,10.9975267 L2.22044605e-16,9 L1.00247329,9 L1.00247329,11 L11,10.9975267 L11,1.00247329 L1.00247329,1.00247329 L1.00247329,3 L2.22044605e-16,3 L2.22044605e-16,1.00247329 Z M2.22044605e-16,5 L6,5 L4,3 L5,2 L9,6 L5,10 L4,9 L6,7 L2.22044605e-16,7 L2.22044605e-16,5 Z" id="Shape"></path>
        </g>
    </g>
</svg>

<svg width="12" height="12" xmlns="http://www.w3.org/2000/svg"><path d="M0 1.002C0 .45.456 0 1.002 0h9.996C11.55 0 12 .456 12 1.002v9.996C12 11.55 11.544 12 10.998 12H1.002A1.007 1.007 0 0 1 0 10.998V9h1.002v2L11 10.998V1.002H1.002V3H0V1.002zM0 5h6L4 3l1-1 4 4-4 4-1-1 2-2H0V5z" fill="#000" fill-rule="nonzero"/></svg>
